X: 4297
T: Sherburn Castle
N: Pub: J. Walsh, London, 1748
Z: 2012 John Chambers <jc:trillian.mit.edu>
M: 2/4
L: 1/16
K: D
%
V: 1
|:\
d2 f4 e2 | d2 a4 g2 | f2 A4 G2 | F4 E4 | D2d2F2E2 | D2d2F2E2 | (DEF2) (FGA2) | "t"B4 A4 :|
|:\
fede fedc | B2g2 g4 | edcd edcB | A2f2 f4 | G2e2c2A2 | F2dc BAGF | E2g2 A2d2 | d4 D4 :|
%
V: 2 clef=bass middle=d
|: d4 d4 | d4 d4 | d4 d4 | d4 d4 | d4 d4 | d4 d4 | d4 d4 | d4 d4 :|
|: d4 d4 | d4 d4 | d4 d4 | d4 d4 | d4 d4 | d4 d4 | d4 d4 | d4 d4 :|
%%begintext align
The 1st Man turns his Partner with his Right hand and both cast off .|
turn again with your Left hands and cast off again :|
Lead up to the top, foot it and cast off .|.
Hands round all Six :|:
%%endtext

%%sep 1 1 500
%%sep 1 1 500

